X:1
T:His Love for Me
T:Fred H. Byshe
T:His Love for Me
T:Public Domain
T:Public Domain
T:Public Domain
C:Fred H. Byshe
Z:Public Domain
%%score ( 1 2 ) ( 3 4 )
L:1/8
M:4/4
K:Bb
V:1 treble 
V:2 treble 
V:3 bass 
V:4 bass 
V:1
 FF | ([DF][DFB])[DFA][DFA] ([DF][DFG])[B,D][B,DF] | %2
w: 1.~You have|heard * of the sto- * ry of|
w: 2.~You have|heard * how He blessed * lit- tle|
w: 3.~You have|heard * how the blind, * as they|
w: 4.~You have|heard * how He spake * to the|
 ([A,CF][A,CF][^G,=B,F][G,B,F]) ([A,CF][A,CF])[A,C][G,D] | %3
w: Of * * * His * grace flow-|
w: “Come, * * * all * ye that|
w: Found * * * their * sight when|
w: How * * * the * words, “Peace,|
 ([A,E][A,E])[A,EG][A,EG] ([EA][EAd])[EAc][EFA] | (z [^C=E][CE][CE] [DF]2) [DF][=CF] | %5
w: bound- * less and free, * But there’s|* * * * can tell|
w: wea- * ry,” said He; * So I|* * * * He gave|
w: bade * them to see; * So my|* * * * ed eyes|
w: still!” * calmed the sea; * So my|* * * * the peace|
 [CD][CD=F][CDF][CDF] ([B,D][B,DG])[B,DA][B,DB] | (z [EA][EA][EA]) ([EA][EAc][EFG])[EFA] | %7
w: * * the full- ness * Of His|* * * ful * * love|
w: * * the bless- ing * Of His|* * * ful * * love|
w: * * been o- pened * By His|* * * ful * * love|
w: * * it longed for * In His|* * * ful * * love|
 [D=EB] [CEA]2 [CEG] [DEB] [CEA]2 [CEG] | (z [E_GA][EGA][EGA] [EFAc]) || %9
w: me. * * * * *||
w: me. His love for me, His||
w: me. * * * * *||
w: me. * * * * *||
[M:3/4]"^Refrain" [DBd][DAd]>[DGd] | [Dd]3 [DFd] [DGd]>[DBd] | [EAe]3 [EAe] [Ece]>[EAe] | %12
w: |||
w: * for me!|High as the heav’n,|deep as the sea;|
w: |||
w: |||
 [EGe]3 [DGd] [DBd]>[^CG^c] | [DFd]3 [DBd] [DAd]>[DGd] | [Dd]3 [Fdf]/[Fdf]/ [^Fd^f]>[Fcf] | %15
w: |||
w: Love that will last|thro’ e- ter- ni-|ty, His love for me,|
w: |||
w: |||
 [GBg]3 [GBg] [GAg]>[GBg] | [FBf]3 [Fe] [Fd]>[Fc] | [FB]3 |] %18
w: |||
w: His love for me!|||
w: |||
w: |||
V:2
 x2 | B2 G2 x4 | F4 x4 | E2 d2 x4 | G4 x4 | ^F2 G2 x4 | (c4 c2) x2 | x8 | c4- x ||[M:3/4] x3 | x6 | %11
w: |Je- sus—|ing|no one|you|won- der-|for *|||||
w: |child- ren:|are|came, and|me|won- der-|for *||love|||
w: |sought Him,|He|sin- blind-|have|won- der-|for *|||||
w: |tem- pest—|be|soul found|that|won- der-|for *|||||
 x6 | x6 | x6 | x6 | x6 | x6 | x3 |] %18
w: |||||||
w: |||||||
w: |||||||
w: |||||||
V:3
 z2 | [B,,F,]4 [B,,B,]2 [B,,F,]2 | (F,,A,,=B,,D,) (C,F,)F,B,, | C,2 F,,2 [F,,F,]4 | %4
 z [B,,B,][B,,B,][B,,B,] [B,,B,]2 [B,,B,][_E,A,] | [D,A,]4 [G,,G,]4 | z F,F,F, z F,F,F, | %7
 [C,,C,]2 [=E,G,B,]2 [C,,C,]2 [E,G,B,]2 | z ([_G,,_G,][G,,G,][G,,G,] [F,,F,]) || %9
[M:3/4] [B,,F,][B,,F,]>[B,,F,] | [B,,F,]3 [B,,F,] [B,,F,]>[B,,F,] | [C,F,]3 F, [F,A,]>[F,C] | %12
 [F,A,]3 [B,,B,] [B,,F,]>[B,,=E,] | [B,,F,]3 [B,,F,] [B,,F,]>[B,,F,] | %14
 [B,,F,]3 [B,,B,]/[B,,B,]/ [D,A,]>[D,D] | [G,D]3 [=E,^C] [E,C]>[E,C] | [F,D]3 [F,A,] [F,B,]>[F,E] | %17
 [B,,B,D]3 |] %18
V:4
 x2 | x8 | F,4 F,4 | F,4 x4 | x8 | x8 | F,,4 F,,4 | x8 | x5 ||[M:3/4] x3 | x6 | x3 F, x2 | x6 | %13
 x6 | x6 | x6 | x6 | x3 |] %18

